src/assets/warning.svg

<svg width="32" height="32" viewBox="0 0 32 32" fill="none" xmlns="http://www.w3.org/2000/svg">
<path d="M16 16V10" stroke="#8257E5" stroke-width="2" stroke-linecap="round" stroke-linejoin="round"/>
<path d="M16 21.3333L16 21.3333" stroke="#8257E5" stroke-width="2" stroke-linecap="round" stroke-linejoin="round"/>
<path d="M4 19.1747V12.8253C4 10.6893 5.136 8.71465 6.98133 7.63998L12.9813 4.14798C14.8467 3.06265 17.152 3.06265 19.0173 4.14798L25.0173 7.63998C26.864 8.71465 28 10.6893 28 12.8253V19.1747C28 21.3107 26.864 23.2853 25.0187 24.36L19.0187 27.852C17.1533 28.9373 14.848 28.9373 12.9827 27.852L6.98267 24.36C5.136 23.2853 4 21.3107 4 19.1747V19.1747Z" stroke="#8257E5" stroke-width="2" stroke-linecap="round" stroke-linejoin="round"/>
</svg>

<svg width="32" height="32" fill="none" xmlns="http://www.w3.org/2000/svg"><path d="M16 16v-6M16 21.333h0M4 19.175v-6.35A6.001 6.001 0 0 1 6.981 7.64l6-3.492a6.002 6.002 0 0 1 6.036 0l6 3.492A6 6 0 0 1 28 12.825v6.35a6.001 6.001 0 0 1-2.981 5.185l-6 3.492a6.002 6.002 0 0 1-6.036 0l-6-3.492A6 6 0 0 1 4 19.175v0Z" stroke="#8257E5" stroke-width="2" stroke-linecap="round" stroke-linejoin="round"/></svg>
